addons/godot-flexbox/assets/dark/AlignContentAroundRowIcon.svg

<svg xmlns="http://www.w3.org/2000/svg" width="16" height="16" fill="none" data-wf-icon="JustifyContentSpaceAroundColumnIcon" viewBox="0 0 24 24"><path fill="#d6d6d6" d="M24 0H0v1.5h24V0ZM24 22.5H0V24h24v-1.5ZM6 4.5h12v6H6v-6ZM6 13.5h12v6H6v-6Z"/></svg>

<svg data-wf-icon="JustifyContentSpaceAroundColumnIcon" width="16" height="16" viewBox="0 0 24 24" fill="none" xmlns="http://www.w3.org/2000/svg"><path d="M24 0H0V1.5H24V0Z" fill="#d6d6d6"></path><path d="M24 22.5H0V24H24V22.5Z" fill="#d6d6d6"></path><path d="M6 4.5H18V10.5H6V4.5Z" fill="#d6d6d6"></path><path d="M6 13.5H18V19.5H6V13.5Z" fill="#d6d6d6"></path></svg>
